img/recomendation/7.svg

<svg width="44" height="44" viewBox="0 0 44 44" fill="none" xmlns="http://www.w3.org/2000/svg">
<g id="mdi:event-clock">
<path id="Vector" d="M27.5 23.8333H30.25V29.0033L34.7233 31.5883L33.3483 33.9717L27.5 30.5983V23.8333ZM34.8333 14.6667H9.16667V34.8333H17.7283C16.94 33.165 16.5 31.295 16.5 29.3333C16.5 25.9297 17.8521 22.6655 20.2588 20.2588C22.6655 17.8521 25.9297 16.5 29.3333 16.5C31.295 16.5 33.165 16.94 34.8333 17.7283V14.6667ZM9.16667 38.5C8.19421 38.5 7.26157 38.1137 6.57394 37.4261C5.88631 36.7384 5.5 35.8058 5.5 34.8333V9.16667C5.5 7.13167 7.13167 5.5 9.16667 5.5H11V1.83333H14.6667V5.5H29.3333V1.83333H33V5.5H34.8333C35.8058 5.5 36.7384 5.88631 37.4261 6.57394C38.1137 7.26157 38.5 8.1942 38.5 9.16667V20.35C40.7733 22.66 42.1667 25.8317 42.1667 29.3333C42.1667 32.7369 40.8146 36.0011 38.4079 38.4079C36.0012 40.8146 32.7369 42.1667 29.3333 42.1667C25.8317 42.1667 22.66 40.7733 20.35 38.5H9.16667ZM29.3333 20.4417C26.9751 20.4417 24.7135 21.3785 23.046 23.046C21.3785 24.7135 20.4417 26.9751 20.4417 29.3333C20.4417 34.2467 24.42 38.225 29.3333 38.225C30.501 38.225 31.6572 37.995 32.736 37.5482C33.8148 37.1013 34.795 36.4464 35.6207 35.6207C36.4464 34.795 37.1013 33.8148 37.5482 32.736C37.995 31.6572 38.225 30.501 38.225 29.3333C38.225 24.42 34.2467 20.4417 29.3333 20.4417Z" fill="#13023E"/>
</g>
</svg>

<svg width="44" height="44" viewBox="0 0 44 44" fill="none" xmlns="http://www.w3.org/2000/svg"><g id="mdi:event-clock"><path id="Vector" d="M27.5 23.833h2.75v5.17l4.473 2.585-1.375 2.384-5.848-3.374v-6.765zm7.333-9.166H9.167v20.166h8.561a12.857 12.857 0 01-1.228-5.5A12.833 12.833 0 0129.333 16.5c1.962 0 3.832.44 5.5 1.228v-3.061zM9.167 38.5A3.667 3.667 0 015.5 34.833V9.167A3.654 3.654 0 019.167 5.5H11V1.833h3.667V5.5h14.666V1.833H33V5.5h1.833A3.667 3.667 0 0138.5 9.167V20.35a12.757 12.757 0 013.667 8.983 12.834 12.834 0 01-12.834 12.834A12.757 12.757 0 0120.35 38.5H9.167zm20.166-18.058a8.892 8.892 0 00-8.891 8.891 8.888 8.888 0 0012.294 8.215 8.892 8.892 0 00-3.403-17.106z" fill="#13023E"/></g></svg>
